lib/brands/logos/eclipse.svg

<svg xmlns="http://www.w3.org/2000/svg" fill="none" aria-hidden="true" viewBox="0 0 228 60"><g id="Eclipse"><g id="Group"><g id="Group_2"><path id="Vector" fill="#F7941E" d="M138.646 4.95651H134.065V10.7572H138.646V4.95651Z"/><path id="Vector_2" fill="#2C2255" d="M157.752 15.3584C161.139 15.3584 163.89 16.7026 166.006 19.3922C168.122 22.0814 169.179 25.6166 169.179 29.9977C169.179 34.3805 168.122 37.9157 166.006 40.604C163.89 43.2923 161.139 44.6378 157.752 44.6378C155.711 44.6378 153.956 44.2353 152.487 43.4298C151.018 42.6256 149.801 41.3929 148.839 39.7325V54.5217H144.233V16.0305H148.839V20.2633C149.802 18.6043 151.019 17.3711 152.487 16.566C153.956 15.7623 155.711 15.3584 157.752 15.3584ZM83.6433 15.3602C87.395 15.3602 90.3614 16.5678 92.5438 18.983C94.7272 21.3959 95.8184 24.6786 95.8184 28.8278V31.0678H74.7554C74.9539 34.2229 75.9045 36.6245 77.6058 38.2755C79.3076 39.9279 81.6769 40.7527 84.7139 40.7527C86.4731 40.7527 88.1785 40.5375 89.8308 40.1067C91.4822 39.6758 93.1202 39.0276 94.7478 38.1641V42.4971C93.1045 43.1944 91.4198 43.7254 89.6933 44.0911C87.9669 44.4559 86.2162 44.6387 84.4403 44.6387C79.9923 44.6387 76.4692 43.3444 73.8717 40.7545C71.2741 38.165 69.9753 34.6645 69.9753 30.2492C69.9753 25.6849 71.2076 22.0617 73.6722 19.3815C76.1368 16.7012 79.4612 15.3602 83.6433 15.3602ZM207.368 15.3602C211.119 15.3602 214.086 16.5678 216.268 18.983C218.45 21.3959 219.542 24.6786 219.542 28.8278V31.0678H198.479C198.678 34.2229 199.628 36.6245 201.33 38.2755C203.031 39.9279 205.402 40.7527 208.438 40.7527C210.198 40.7527 211.903 40.5375 213.555 40.1067C215.206 39.6758 216.844 39.0276 218.472 38.1641V42.4971C216.828 43.1944 215.143 43.7254 213.417 44.0911C211.691 44.4559 209.94 44.6387 208.165 44.6387C203.716 44.6387 200.193 43.3444 197.597 40.7545C194.998 38.165 193.699 34.6645 193.699 30.2492C193.699 25.6849 194.932 22.0617 197.396 19.3815C199.861 16.7008 203.186 15.3602 207.368 15.3602ZM111.538 15.3584C112.949 15.3584 114.327 15.5049 115.671 15.7947C117.016 16.0849 118.319 16.5211 119.581 17.102V21.3838C118.285 20.6704 116.987 20.1353 115.684 19.7781C114.38 19.421 113.066 19.2431 111.738 19.2431C108.766 19.2431 106.459 20.1847 104.817 22.0684C103.174 23.9521 102.352 26.596 102.352 29.9977C102.352 33.4003 103.174 36.0441 104.817 37.9278C106.459 39.8124 108.766 40.7531 111.738 40.7531C113.066 40.7531 114.38 40.5752 115.684 40.2194C116.986 39.8623 118.285 39.3272 119.581 38.6129V42.8448C118.302 43.4424 116.978 43.8907 115.609 44.189C114.239 44.4882 112.784 44.6374 111.239 44.6374C107.04 44.6374 103.704 43.3175 101.231 40.6786C98.7578 38.0401 97.5215 34.4798 97.5215 29.9977C97.5215 25.4508 98.77 21.8734 101.268 19.2674C103.766 16.6622 107.19 15.3584 111.538 15.3584ZM181.812 15.358C183.505 15.358 185.098 15.4824 186.592 15.7309C188.087 15.9815 189.464 16.3544 190.726 16.8526V21.1847C189.431 20.5212 188.087 20.023 186.693 19.6905C185.298 19.359 183.854 19.1932 182.36 19.1932C180.086 19.1932 178.381 19.5414 177.243 20.2391C176.106 20.9359 175.539 21.9817 175.539 23.3757C175.539 24.4373 175.944 25.272 176.758 25.8781C177.571 26.4836 179.206 27.06 181.663 27.6086L183.231 27.9567C186.484 28.6544 188.796 29.6369 190.165 30.9074C191.535 32.177 192.22 33.9488 192.22 36.222C192.22 38.8115 191.194 40.861 189.144 42.3718C187.094 43.8813 184.277 44.6374 180.692 44.6374C179.199 44.6374 177.642 44.4918 176.023 44.202C174.404 43.9118 172.7 43.4756 170.906 42.8947V38.1637C172.6 39.0446 174.268 39.7037 175.911 40.144C177.554 40.5838 179.181 40.803 180.791 40.803C182.949 40.803 184.608 40.4346 185.77 39.6956C186.932 38.9561 187.512 37.9152 187.512 36.5711C187.512 35.3262 187.094 34.372 186.256 33.7071C185.418 33.0436 183.579 32.4043 180.74 31.7897L179.148 31.4168C176.31 30.8193 174.26 29.9024 172.999 28.6661C171.737 27.4298 171.106 25.7329 171.106 23.5743C171.106 20.9516 172.036 18.9273 173.895 17.5C175.754 16.0723 178.393 15.358 181.812 15.358ZM128.305 5.17575V43.9154H123.723V5.17575H128.305ZM138.646 16.0305V43.9154H134.065V16.0305H138.646ZM156.631 19.1932C154.207 19.1932 152.303 20.1515 150.917 22.0684C149.532 23.9858 148.838 26.6283 148.838 29.9977C148.838 33.3679 149.532 36.0118 150.917 37.9278C152.303 39.8457 154.207 40.803 156.631 40.803C159.055 40.803 160.96 39.8448 162.345 37.9278C163.731 36.0118 164.425 33.3679 164.425 29.9977C164.425 26.6283 163.731 23.9854 162.345 22.0684C160.96 20.1515 159.055 19.1932 156.631 19.1932ZM83.6936 19.2431C81.1374 19.2431 79.0915 19.965 77.5564 21.4094C76.0209 22.8528 75.1372 24.8866 74.905 27.5084L91.2374 27.4837C91.2037 24.9778 90.5024 22.9773 89.1336 21.4839C87.7638 19.9897 85.9506 19.2431 83.6936 19.2431ZM207.417 19.2431C204.862 19.2431 202.815 19.965 201.281 21.4094C199.745 22.8528 198.86 24.8866 198.629 27.5084L214.961 27.4837C214.927 24.9778 214.227 22.9773 212.856 21.4839C211.487 19.9897 209.673 19.2431 207.417 19.2431Z"/></g><g id="Group_3"><path id="Vector_3" fill="#2C2255" d="M56.6668 36.0774C55.6632 39.4939 53.802 42.5569 51.0786 45.2623C47.6513 48.713 43.6512 50.7786 39.0823 51.4682C37.9412 51.6403 36.7664 51.7306 35.5539 51.7306C29.4881 51.7306 24.3011 49.5764 19.9874 45.2623C17.2816 42.556 15.4334 39.4939 14.4374 36.0774H56.6668ZM57.5146 30.969C57.476 31.7441 57.3979 32.5024 57.2853 33.2467L57.2261 33.6178H13.8821C13.7585 32.878 13.6692 32.1248 13.6182 31.3552L13.5959 30.969H57.5146ZM57.2252 25.8606C57.3496 26.6007 57.4393 27.354 57.4907 28.1233L57.5132 28.5093H13.5959C13.6341 27.7346 13.7115 26.9763 13.8233 26.2317L13.8821 25.8606H57.2252Z"/><path id="Vector_4" fill="#2C2255" d="M56.6677 23.4005C55.665 19.9745 53.8033 16.898 51.0786 14.1729C47.6603 10.7546 43.6714 8.70374 39.1173 8.01369C37.9655 7.83893 36.779 7.74728 35.5539 7.74728C29.4881 7.74728 24.3006 9.88975 19.9874 14.1729C17.2807 16.898 15.4316 19.9745 14.436 23.4005"/><path id="Vector_5" fill="#F7941E" d="M12.2899 29.7398C12.2899 18.1384 21.003 8.49886 32.3381 6.80339C32.0568 6.79306 31.7743 6.78183 31.4903 6.78183C18.7703 6.78183 8.45776 17.0607 8.45776 29.7398C8.45776 42.4194 18.7698 52.6978 31.4903 52.6978C31.7751 52.6978 32.0577 52.687 32.3399 52.6767C21.0031 50.9812 12.2899 41.3417 12.2899 29.7398Z"/><path id="Vector_6" fill="url(#paint0_linear_93_15151)" d="M50.4999 28.5089C50.4263 27.6009 50.2735 26.7155 50.0453 25.8601H21.0642C20.836 26.715 20.6828 27.6005 20.6091 28.5089H50.4999Z"/><path id="Vector_7" fill="url(#paint1_linear_93_15151)" d="M50.4997 30.969H20.6094C20.6831 31.8769 20.8353 32.7624 21.064 33.6178H50.0455C50.2738 32.7624 50.426 31.8769 50.4997 30.969Z"/><path id="Vector_8" fill="url(#paint2_linear_93_15151)" d="M35.5546 44.7394C41.5732 44.7394 46.7611 41.1935 49.1502 36.0774H21.959C24.3481 41.1935 29.536 44.7394 35.5546 44.7394Z"/><path id="Vector_9" fill="white" d="M57.2202 33.6173C57.0724 34.4547 56.8788 35.2759 56.6389 36.0774H14.4369C14.1965 35.2755 14.029 34.4543 13.8816 33.6173H57.2202ZM57.4759 28.5089C57.5001 28.9325 57.5158 29.358 57.5158 29.787C57.5158 30.1837 57.5042 30.5777 57.4835 30.969H13.5883C13.5676 30.5777 13.5559 30.1837 13.5559 29.787C13.5559 29.358 13.5716 28.9321 13.5959 28.5089H57.4759ZM56.4952 23.4005C56.7391 24.2019 56.9345 25.0236 57.0864 25.8606H13.8821C14.0335 25.0232 14.1911 24.2015 14.4355 23.4005H56.4952Z"/></g></g></g><defs><linearGradient id="paint0_linear_93_15151" x1="35.5544" x2="35.5544" y1="54.7158" y2="21.6353" gradientUnits="userSpaceOnUse"><stop offset="0.3033" stop-color="#473788"/><stop offset="0.872" stop-color="#2C2255"/></linearGradient><linearGradient id="paint1_linear_93_15151" x1="35.5542" x2="35.5542" y1="54.7162" y2="21.6358" gradientUnits="userSpaceOnUse"><stop offset="0.3033" stop-color="#473788"/><stop offset="0.872" stop-color="#2C2255"/></linearGradient><linearGradient id="paint2_linear_93_15151" x1="35.5543" x2="35.5543" y1="54.7154" y2="21.6366" gradientUnits="userSpaceOnUse"><stop offset="0.3033" stop-color="#473788"/><stop offset="0.8631" stop-color="#2C2255"/></linearGradient></defs></svg>

<svg xmlns="http://www.w3.org/2000/svg" fill="none" aria-hidden="true" viewBox="0 0 228 60"><path fill="#F7941E" d="M138.646 4.957h-4.581v5.8h4.581v-5.8Z"/><path fill="#2C2255" d="M157.752 15.358c3.387 0 6.138 1.345 8.253 4.034 2.117 2.69 3.174 6.225 3.174 10.606 0 4.383-1.057 7.918-3.174 10.606-2.115 2.688-4.866 4.034-8.253 4.034-2.041 0-3.796-.403-5.265-1.208-1.469-.804-2.686-2.037-3.648-3.697v14.789h-4.606V16.03h4.606v4.232c.963-1.659 2.179-2.892 3.648-3.697 1.469-.804 3.224-1.207 5.265-1.207Zm-74.109.002c3.752 0 6.718 1.208 8.9 3.623 2.184 2.413 3.275 5.696 3.275 9.845v2.24H74.755c.199 3.155 1.15 5.557 2.85 7.208 1.703 1.652 4.072 2.477 7.109 2.477 1.759 0 3.464-.215 5.117-.646 1.651-.431 3.29-1.08 4.917-1.943v4.333a27.51 27.51 0 0 1-5.055 1.594 25.337 25.337 0 0 1-5.253.548c-4.448 0-7.97-1.295-10.568-3.885-2.598-2.589-3.897-6.09-3.897-10.505 0-4.564 1.233-8.187 3.697-10.867 2.465-2.68 5.79-4.022 9.971-4.022Zm123.725 0c3.751 0 6.718 1.208 8.9 3.623 2.182 2.413 3.274 5.696 3.274 9.845v2.24h-21.063c.199 3.155 1.149 5.557 2.851 7.208 1.701 1.652 4.071 2.477 7.107 2.477a20.18 20.18 0 0 0 5.117-.646c1.652-.431 3.29-1.08 4.918-1.943v4.333a27.54 27.54 0 0 1-5.055 1.594 25.331 25.331 0 0 1-5.252.548c-4.449 0-7.972-1.295-10.568-3.885-2.599-2.589-3.898-6.09-3.898-10.505 0-4.564 1.233-8.187 3.697-10.867 2.465-2.681 5.79-4.022 9.972-4.022Zm-95.83-.002c1.411 0 2.788.147 4.133.437a18.77 18.77 0 0 1 3.909 1.307v4.282a17.856 17.856 0 0 0-3.896-1.606 14.872 14.872 0 0 0-3.947-.535c-2.971 0-5.278.942-6.92 2.826-1.644 1.883-2.465 4.527-2.465 7.929s.821 6.046 2.465 7.93c1.642 1.884 3.949 2.825 6.92 2.825a14.92 14.92 0 0 0 3.947-.534 17.84 17.84 0 0 0 3.896-1.606v4.232a18.8 18.8 0 0 1-3.971 1.344c-1.37.3-2.825.448-4.37.448-4.199 0-7.535-1.32-10.008-3.958-2.473-2.639-3.71-6.2-3.71-10.681 0-4.547 1.249-8.125 3.747-10.73 2.498-2.606 5.922-3.91 10.27-3.91Zm70.274 0c1.693 0 3.286.124 4.78.373 1.495.25 2.872.624 4.134 1.122v4.332a17.928 17.928 0 0 0-4.034-1.494 18.657 18.657 0 0 0-4.332-.498c-2.274 0-3.979.348-5.117 1.046-1.137.697-1.704 1.743-1.704 3.137 0 1.061.405 1.896 1.219 2.502.813.606 2.448 1.182 4.905 1.73l1.568.349c3.253.697 5.565 1.68 6.934 2.95 1.37 1.27 2.055 3.042 2.055 5.315 0 2.59-1.026 4.639-3.076 6.15-2.05 1.51-4.867 2.265-8.452 2.265a26.52 26.52 0 0 1-4.669-.435 39.026 39.026 0 0 1-5.117-1.307v-4.731c1.694.88 3.362 1.54 5.005 1.98 1.643.44 3.27.659 4.88.659 2.158 0 3.816-.368 4.979-1.107 1.162-.74 1.742-1.78 1.742-3.125 0-1.245-.418-2.199-1.256-2.864-.839-.663-2.677-1.303-5.516-1.917l-1.592-.373c-2.838-.598-4.889-1.515-6.15-2.75-1.261-1.237-1.892-2.934-1.892-5.093 0-2.622.93-4.647 2.789-6.074 1.859-1.428 4.498-2.142 7.917-2.142ZM128.305 5.176v38.74h-4.582V5.175h4.582Zm10.341 10.854v27.885h-4.581V16.031h4.581Zm17.985 3.163c-2.424 0-4.329.958-5.714 2.875-1.386 1.918-2.079 4.56-2.079 7.93s.693 6.014 2.079 7.93c1.385 1.918 3.29 2.875 5.714 2.875 2.424 0 4.328-.958 5.714-2.875 1.386-1.916 2.08-4.56 2.08-7.93s-.694-6.013-2.08-7.93c-1.386-1.917-3.29-2.875-5.714-2.875Zm-72.938.05c-2.556 0-4.602.722-6.137 2.166-1.535 1.444-2.419 3.478-2.651 6.1l16.332-.025c-.033-2.506-.735-4.507-2.103-6-1.37-1.494-3.183-2.24-5.44-2.24Zm123.724 0c-2.556 0-4.602.722-6.137 2.166-1.535 1.444-2.42 3.478-2.651 6.1l16.332-.025c-.034-2.506-.735-4.507-2.105-6-1.369-1.494-3.183-2.24-5.439-2.24ZM56.667 36.077c-1.004 3.417-2.865 6.48-5.588 9.185-3.428 3.451-7.428 5.517-11.997 6.206a23.629 23.629 0 0 1-3.528.263c-6.066 0-11.253-2.154-15.567-6.469-2.705-2.706-4.554-5.768-5.55-9.185h42.23Zm.848-5.108a22.783 22.783 0 0 1-.23 2.278l-.059.37H13.882a22.9 22.9 0 0 1-.264-2.262l-.022-.386h43.919Zm-.29-5.108c.125.74.214 1.493.266 2.262l.022.386H13.596c.038-.774.115-1.533.227-2.277l.06-.371h43.342Zm-.557-2.461c-1.003-3.425-2.865-6.502-5.59-9.227-3.418-3.418-7.407-5.47-11.96-6.16a23.71 23.71 0 0 0-3.564-.266c-6.066 0-11.253 2.143-15.567 6.426-2.706 2.725-4.555 5.801-5.551 9.228"/><path fill="#F7941E" d="M12.29 29.74c0-11.602 8.713-21.241 20.048-22.937-.281-.01-.564-.021-.848-.021-12.72 0-23.032 10.279-23.032 22.958 0 12.68 10.312 22.958 23.032 22.958.285 0 .568-.011.85-.021C21.003 50.98 12.29 41.342 12.29 29.74Z"/><path fill="url(#a)" d="M50.5 28.509a14.957 14.957 0 0 0-.455-2.649h-28.98c-.23.855-.382 1.74-.456 2.649h29.89Z"/><path fill="url(#b)" d="M50.5 30.969H20.61c.073.908.225 1.793.454 2.649h28.981c.229-.856.381-1.741.455-2.649Z"/><path fill="url(#c)" d="M35.555 44.74c6.018 0 11.206-3.547 13.595-8.663H21.96c2.39 5.117 7.577 8.662 13.596 8.662Z"/><path fill="#fff" d="M57.22 33.617a21.773 21.773 0 0 1-.581 2.46H14.437c-.24-.801-.408-1.623-.555-2.46H57.22Zm.256-5.108c.024.424.04.849.04 1.278 0 .397-.012.79-.033 1.182H13.588c-.02-.391-.032-.785-.032-1.182 0-.429.016-.855.04-1.278h43.88Zm-.98-5.108c.243.801.438 1.623.59 2.46H13.882c.151-.838.31-1.66.553-2.46h42.06Z"/><defs><linearGradient id="a" x1="35.554" x2="35.554" y1="54.716" y2="21.635" gradientUnits="userSpaceOnUse"><stop offset=".303" stop-color="#473788"/><stop offset=".872" stop-color="#2C2255"/></linearGradient><linearGradient id="b" x1="35.554" x2="35.554" y1="54.716" y2="21.636" gradientUnits="userSpaceOnUse"><stop offset=".303" stop-color="#473788"/><stop offset=".872" stop-color="#2C2255"/></linearGradient><linearGradient id="c" x1="35.554" x2="35.554" y1="54.715" y2="21.637" gradientUnits="userSpaceOnUse"><stop offset=".303" stop-color="#473788"/><stop offset=".863" stop-color="#2C2255"/></linearGradient></defs></svg>
